X: 12824
T: Felinity Fad, The
R: reel
M: 4/4
K: Gmajor
dcS|:B2 AG EDB,C|D2GA BGDd|
B2 AG EDB,B|cAdF [1E2 dc:|2 G2 Bc||
|:defd g2 dc|BABd e2 fg|1 d2gd c2 dc|
BAGB A2 Bc:|2 dgfg decd|BcAF G2dSc||

